X:1
T: Kiss me Sweetheart
C:
R:Jig
Q:180
K:G
M:6/8
L:1/16
c2|B4G2 G2B2G2|A4B2 d4e2|B4G2 G2B2G2|e2c2A2 e2c2A2|B4G2 G2B2G2|A4B2 c4e2|d2B2d2 g2f2e2|d2B2G2 G4c2|
B4G2 G2B2G2|A4B2 d4e2|B4G2 G2B2G2|e2c2A2 e2c2A2|B4G2 G2B2G2|A4B2 c4e2|d2B2d2 g2f2e2|d2B2G2 G4c2|
B4c2 d4g2|e2c2e2 d4g2|B2G2B2 d2B2G2|e2c2A2 e2c2A2|B4c2 d4g2|e2c2e2 d4c2|B2c2d2 g2f2e2|d2B2G2 G4c2|
B4c2 d4g2|e2c2e2 d4g2|B2G2B2 d2B2G2|e2c2A2 e2c2A2|B4c2 d4g2|e2c2e2 d4c2|B2c2d2 g2f2e2|d2B2G2 G4||
